X:1
T:Shipwreck
T:A Sinking Ship
%%score { 1 | 2 } 3
L:1/8
Q:1/4=90
M:4/4
K:Eb
V:1 treble nm="Piano" snm="Pno."
V:2 bass 
V:3 bass transpose=-12 nm="Bass Guitar" snm="B. Guit."
V:1
 z8 | z8 | z8 | z2 z2 z2!mf! [DBd]2 |: [EBe]2 z2 z4 | z2 [B,DB]2 [CEc]2 [Gcg]2 | %6
 [Fcf]3 [EBe]3 [CGc]2 | z B3/2d3/2 e [Fcf]2 c | [B,FB]3 [CGc]3 z2 | z2 [B,DB]2 [CEc]2 [Gcg]2 | %10
 [Fcf]3 [EBe]3 [CGc]2 | z4 z2!f! [Gcg]2 | [Acga]3 f3 [cfc']2 | z4 z2 [FAf]2 | %14
 [EGe]3 [DGd]3 [B,GB]2 | z4 z2 [Gcg]2 | [Acga]3 [cf]3 [Aca]2 | z4 z2 [FAf]2 | %18
 [=B,G=B]3 [CGc]3 [DGd]2- | [DGd]!>(! [EGe]2 [DGd]3!mf! [DFBd]2!>)! :| [CEGd]8 | z8 | z8 | z8 | %24
 z8 | z8 |] %26
V:2
!p!!ped! !>!C,C,!>!G,G, !>!B,B,!>!CC | z2 !>!DD !>!B,B,!>!G,G,!ped-up! | %2
!ped! !>!C,C,!>!G,G, !>!B,B,!>!CC | z2 !>!DD !>!B,B,!>!G,G,!ped-up! |: %4
!ped! !>!C,C,!>!G,G, !>!B,B,!>!CC | z2 !>!DD !>!B,B,!>!G,G,!ped-up! | %6
!ped! !>!C,C,!>!G,G, !>!B,B,!>!CC | z2 !>!DD !>!B,B,!>!G,G,!ped-up! | %8
!ped! !>!C,C,!>!G,G, !>!B,B,!>!CC | z2 !>!DD !>!B,B,!>!G,G,!ped-up! | %10
!ped! !>!C,C,!>!G,G, !>!B,B,!>!CC | z2 !>!DD !>!B,B,!>!G,G,!ped-up! | %12
!ped! !>!F,F,!>!A,A, !>!CC!>!FF | z2 !>!GG !>!EE!>!CC!ped-up! |!ped! !>!G,G,!>!B,B, !>!DD!>!B,B, | %15
 z2 !>!EE !>!DD!>!EE!ped-up! |!ped! !>!C,C,!>!F,F, !>!CC!>!AA | z2 !>!FF !>!CC!>!A,A,!ped-up! | %18
!ped! !>!D,D,!>!=B,B, !>!CC!>!DD | z2 !>!FF !>!EE!>!DD!ped-up! :| %20
!ped! !>!C,C,!>!G,G, !>!B,B,!>!CC | z2 !>!DD !>!B,B,!>!G,G, | !>!C,C,!>!G,G, !>!B,B,!>!CC | %23
 z2 !>!DD !>!B,B,!>!G,G, | [C,E,G,D]8- | [C,E,G,D]8!ped-up! |] %26
V:3
!mp! C,,G,, z C,, z z z2 | C,,G,, z C,, z z z2 | C,,G,, z C,, z z z2 | C,,G,, z C,, z z z2 |: %4
 C,,G,, z C,, z z z2 | C,,G,, z C,, z z z2 | C,,G,, z C,, z z z2 | C,,G,, z C,, z z z2 | %8
 C,,G,, z C,, z z z2 | C,,G,, z C,, z z z2 | C,,G,, z C,, z z z2 | C,,G,, z C,, z z z2 | %12
 F,,C, z F,, z z z2 | F,,C, z F,, z z z2 | C,,G,, z C,, z z z2 | C,,G,, z C,, z z z2 | %16
 F,,C, z F,, z z z2 | F,,C, z F,, z z z2 | G,,D, z G,, z z z2 | G,,D, z G,, z z z2 :| z8 | z8 | %22
 z8 | z8 | z8 | z8 |] %26

